X:4
T:Through the Fields
M:C|
L:1/8
Q:160
C:Martin Dunlea
S:Cornac Breatnach (m. for whistle and guitar) Trk 1
R:reel
D:rmac Breatnach and Martin Dunlea: Music for Whistle and Guitar
Z:vin McCabe
K:G
|dDGd dDAd|cABc BGDG|1 DEGE DDGB|AGFG AD (3EGB :|
|2 E2GE DEGB|AG (3FGA G4||:
F~G3 AB (3cBA|BGGD ED (3DEG|Az A4 (3ABc|BAGB A2(3cBA:||:
G2BG FGAF|GF (3EFG FEDF|EFGE FGAc|B2G6:|
